icon/lg/google-photos.svg

<?xml version="1.0" encoding="UTF-8"?>
<svg viewBox="0 0 256 256" version="1.1" xmlns="http://www.w3.org/2000/svg" xmlns:xlink="http://www.w3.org/1999/xlink" preserveAspectRatio="xMidYMid" height="1em" width="1em">
  <g>
    <path d="M64,58.1485714 C99.328,58.1485714 128,86.8205714 128,122.148571 L128,122.148571 L128,128 L5.85142857,128 C2.63314286,128 0,125.366857 0,122.148571 C0,86.8205714 28.672,58.1485714 64,58.1485714 L64,58.1485714 Z" fill="#FBBB05"/>
    <path d="M197.851429,64 C197.851429,99.328 169.179429,128 133.851429,128 L128,128 L128,5.85142857 C128,2.63314286 130.633143,0 133.851429,0 L133.851429,0 C169.179429,0 197.851429,28.672 197.851429,64 Z" fill="#E94335"/>
    <path d="M192,197.851429 C156.672,197.851429 128,169.179429 128,133.851429 L128,133.851429 L128,128 L250.148571,128 C253.366857,128 256,130.633143 256,133.851429 L256,133.851429 C256,169.179429 227.328,197.851429 192,197.851429 L192,197.851429 Z" fill="#4285F4"/>
    <path d="M58.1485714,192 C58.1485714,156.672 86.8205714,128 122.148571,128 L128,128 L128,250.148571 C128,253.366857 125.366857,256 122.148571,256 L122.148571,256 C86.8205714,256 58.1485714,227.328 58.1485714,192 Z" fill="#0F9D58"/>
  </g>
</svg>

<svg width="256" height="256" xmlns="http://www.w3.org/2000/svg" preserveAspectRatio="xMidYMid"><path d="M64 58.149c35.328 0 64 28.672 64 64V128H5.851C2.633 128 0 125.367 0 122.149c0-35.328 28.672-64 64-64Z" fill="#FBBB05"/><path d="M197.851 64c0 35.328-28.672 64-64 64H128V5.851C128 2.633 130.633 0 133.851 0c35.328 0 64 28.672 64 64Z" fill="#E94335"/><path d="M192 197.851c-35.328 0-64-28.672-64-64V128h122.149c3.218 0 5.851 2.633 5.851 5.851 0 35.328-28.672 64-64 64Z" fill="#4285F4"/><path d="M58.149 192c0-35.328 28.672-64 64-64H128v122.149c0 3.218-2.633 5.851-5.851 5.851-35.328 0-64-28.672-64-64Z" fill="#0F9D58"/></svg>
